public_html/images/facebook.svg

<svg xmlns="http://www.w3.org/2000/svg" width="32" height="32" viewBox="0 0 32 32">
  <g fill="none">
    <path fill="#3B5998" d="M32,30 C32,31.104 31.104,32 30,32 L2,32 C0.896,32 0,31.104 0,30 L0,2 C0,0.896 0.896,0 2,0 L30,0 C31.104,0 32,0.896 32,2 L32,30 Z"/>
    <path fill="#FFFFFF" d="M22,32 L22,20 L26,20 L27,15 L22,15 L22,13 C22,11 23.002,10 25,10 L27,10 L27,5 L23,5 C19.325,5 17,7.881 17,12 L17,15 L13,15 L13,20 L17,20 L17,32 L22,32 Z"/>
  </g>
</svg>

<svg xmlns="http://www.w3.org/2000/svg" width="32" height="32" viewBox="0 0 32 32"><g fill="none"><path fill="#3B5998" d="M32 30a2 2 0 0 1-2 2H2a2 2 0 0 1-2-2V2a2 2 0 0 1 2-2h28a2 2 0 0 1 2 2v28z"/><path fill="#FFF" d="M22 32V20h4l1-5h-5v-2c0-2 1.002-3 3-3h2V5h-4c-3.675 0-6 2.881-6 7v3h-4v5h4v12h5z"/></g></svg>
